X:21187 
T:STOLEN PURSE, The  
B:DMI.0344
Z:Nordberg/Black
R:jig
%Q:1/4=160
M:6/8
L:1/8
K:G
G|FED cAg|fed cAG|ABG ABc|dcA ABG|
FED cAg|fed cAF|G3 GAF|DGG G2:|
%
B|cBA fAg|fed cAG|ABG ABc|dcA ABG|
FED fAg|fed cAF|G3 GAF|DGG G2:|
%
f|afa geg|fed cAG|ABG ABc|dcA Afg|
afa geg|fdf ecA|G3 GAF|DGG G2:|

%%%

